X: 8
T:Hughie Shortie
M:C
L:1/8
S:AB AB
R:Tune 3
O:Johnny Wilmot
A:Cape Breton
N:Melbourne Scottish Fiddle Clu
K:G
D||:G2 Bd cAFD|GABd g2 fg|ecAc dBGB|cAAB AFDF|!
G2 Bd cAFD|GABd g2 fg|ecAc dBGB|cAGF G3:||!
f|g2 dg bgag|ec c/2c/2c efge|dB B/2B/2B dBGB|cAAB AF D2|!
|g2 dg bgag|ec c/2c/2c efge|dB B/2B/2B dBGB|cAGF G2 Bd|!
g2 dg bgag|ecea g2 fe|dB B/2B/2B dBGB|cAAB AFDB,|!
|C2 EC B,DdB|cdef g2 fg|ecAc dBGB|cAGF G3||
